X:1
T:Miss Louisa Duff
T:Miss Louisa Duff
T:William Marshall
C:William Marshall
%%score { ( 1 2 ) 3 }
L:1/8
M:4/4
K:Gmin
V:1 treble 
V:2 treble 
V:3 bass 
V:1
 TB2 (GB) DGBG | TA2 Fc AFcA | TB2 (GB) DGBG | A>G^FA G/G/G G2 :: dg-ga bgaf | cffa bgaf |1 %6
 dgga bgaf | ag^fg g/g/g g2 :|2 defg fdcB | A>G^FA G/G/G G2 |] %10
V:2
 x8 | x8 | x8 | x8 :: x8 | x8 |1 x8 | c4 B2 B2 :|2 x8 | D8 |] %10
V:3
 [Gg]2 [Gg]2 [Gg]2 [Gg]2 | [Ff]2 [Ff]2 [Ff]2 [Ff]2 | [Gg]2 [Gg]2 [Gg]2 [Gg]2 | d2 D2 [Gg]2 [Gg]2 :: %4
 [gbd']2 [gbd']2 [gbd']2 [ac']2 | [ac']2 [fc']2 [=ec']2 [fc']2 |1 [bd']2 [gd']2 [gd']2 [ac']2 | %7
 d'2 d2 [Gg]2 [Gg]2 :|2 [Bb]2 [Bb]2 [Aa][Bb] [cc']2 | [dac']2 [dac']2 [Gg]2 [Gg]2 |] %10

